contributed-vectors/whataburger.svg

<svg xmlns="http://www.w3.org/2000/svg" viewBox="0 0 192 192"><path fill="#f8c18c" d="M96 24 71.08 91.7S54.15 44.93 50.15 34.47s-10.14-8-25.22-8H8v11.37h24.31c18.77 0 16.92 4.63 23.69 23.09s14.47 39.37 14.47 39.37L95.69 32l25.55 68.3s11.37-28.6 17.53-46.45 12.92-16 27.07-16h17.23v-11.7h-23.38c-17.23 0-16 2.15-21.55 17.53s-17.83 48-17.83 48Z"/><path fill="#f8c18c" d="m95.69 41.23-25.85 67.39s-15.07-38.77-20-51.08S44 43.68 31.08 43.68c-12.35 0-22.17-.26-23.08-.28v12h23.38c15.39 0 15.08 3.38 22.77 23.69s15.08 38.15 15.08 38.15l26.46-67.08 26.77 67.07s18.46-43.07 20.62-52.3 8.61-9.54 21.22-9.54h19.4V43.68h-27.09c-13.23 0-12.62 6.79-18.47 23.1s-16.29 41.54-16.29 41.54Z"/><path fill="#f8c18c" d="M8 72.31V60.62h17.23c10.77 0 16.31-2.47 24 16s19.08 48.3 19.08 48.3L96 59.08l26.77 66.15s13.54-32 19.08-45.54 4.92-19.69 20-19.69h21.84v12.62h-19.38c-10.77 0-15.69-1.54-22.16 16.3s-18.46 45.23-18.46 45.23l-28-67.07-27.38 67.07S56 104 50.46 90.46s-7.38-18.15-19.69-18.15Z"/><path fill="#f8c18c" d="M66.77 150.46s-11.69-27.08-17.85-41.23-7.69-19.69-19.07-19.69H8V77.23h16c12.92 0 15.39.16 20.92 12.08s22.16 52.23 22.16 52.23L96 76l28 65.54s13.85-31.08 20-45.23 6.15-18.77 17.85-18.77h21.84v12.31h-16.31c-10.46 0-17.23-.93-21.84 11.69s-20.92 49.23-20.92 49.23L95.69 84.31l-28.92 66.15Z"/><path fill="#f8c18c" d="M65.54 168s-14.46-31.08-20.31-44.31-5.23-17.23-12.92-17.23H8V94.77h15.08c10.46 0 13.23-2.15 20 13.23s23.07 50.77 23.07 50.77l29.54-65.54 29.23 65.23s16.93-34.77 22.46-46.77 4-16.92 19.39-16.92H184v12h-17.85c-9.84 0-12-1.23-15.69 8.31S125.85 168 125.85 168l-30.47-66.46Z"/></svg>

<svg xmlns="http://www.w3.org/2000/svg" viewBox="0 0 192 192"><title>Whataburger</title><path d="M96,24,71.08,91.7S54.15,44.93,50.15,34.47s-10.14-8-25.22-8H8V37.84H32.31c18.77,0,16.92,4.63,23.69,23.09S70.47,100.3,70.47,100.3L95.69,32l25.55,68.3s11.37-28.6,17.53-46.45,12.92-16,27.07-16h17.23V26.15H159.69c-17.23,0-16,2.15-21.55,17.53s-17.83,48-17.83,48Z" fill="#f8c18c"/><path d="M95.69,41.23,69.84,108.62s-15.07-38.77-20-51.08S44,43.68,31.08,43.68c-12.35,0-22.17-.26-23.08-.28v12H31.38c15.39,0,15.08,3.38,22.77,23.69s15.08,38.15,15.08,38.15L95.69,50.16l26.77,67.07s18.46-43.07,20.62-52.3,8.61-9.54,21.22-9.54h19.4V43.68H156.61c-13.23,0-12.62,6.79-18.47,23.1s-16.29,41.54-16.29,41.54Z" fill="#f8c18c"/><path d="M8,72.31V60.62H25.23c10.77,0,16.31-2.47,24,16s19.08,48.3,19.08,48.3L96,59.08l26.77,66.15s13.54-32,19.08-45.54S146.77,60,161.85,60h21.84V72.62H164.31c-10.77,0-15.69-1.54-22.16,16.3s-18.46,45.23-18.46,45.23l-28-67.07L68.31,134.15S56,104,50.46,90.46,43.08,72.31,30.77,72.31Z" fill="#f8c18c"/><path d="M66.77,150.46s-11.69-27.08-17.85-41.23S41.23,89.54,29.85,89.54H8V77.23H24c12.92,0,15.39.16,20.92,12.08s22.16,52.23,22.16,52.23L96,76l28,65.54s13.85-31.08,20-45.23,6.15-18.77,17.85-18.77h21.84V89.85H167.38c-10.46,0-17.23-.93-21.84,11.69s-20.92,49.23-20.92,49.23L95.69,84.31,66.77,150.46Z" fill="#f8c18c"/><path d="M65.54,168s-14.46-31.08-20.31-44.31S40,106.46,32.31,106.46H8V94.77H23.08c10.46,0,13.23-2.15,20,13.23s23.07,50.77,23.07,50.77L95.69,93.23l29.23,65.23s16.93-34.77,22.46-46.77,4-16.92,19.39-16.92H184v12H166.15c-9.84,0-12-1.23-15.69,8.31S125.85,168,125.85,168L95.38,101.54Z" fill="#f8c18c"/></svg>
